!!!!SEGMENT: pl-wn--mus-2041-2_zelenski-wladyslaw--przy-rozstaniu.krn
!!!cenid: 18xx:3660
!!!COM: Żeleński, Władysław
!!!COM-rismID: pe41024455
!!!CDT: 1837/07/06-1921/01/23
!!!CNT: Polish
!!!OTL: Przy rozstaniu
!!!PDT:
!!!AGN:
!!!SMS-siglum: PL-Wn
!!!SMS-shelfmark: Mus.2041/2
!!!SMS-shelfwork: W
!!!SMS-variant:
!!!SMS-altvar:
!!!NIFC-rismSourceID:
!!!NIFC-rismChildID:
!!!NIFC-islandoraID:
!!!URL-pdf-islandora:
!!!URL-scan: https://polona.pl/item/przy-rozstaniu-piesn,NjYwMTQ0NzE/0 @EN{Scan on Polona} @PL{Skany w portalu Polona}
!!!ONB-nifc:
!!!AIN: 1 piano 1 vox
!!!key: A
**kern	**kern	**dynam	**kern	**text	**dynam
*part2	*part2	*part2	*part1	*part1	*part1
*staff3	*staff2	*	*staff1	*staff1	*
*I"Fortepian.	*I"Fortepian.	*	*I"Śpiew	*	*
*Ipiano	*Ipiano	*	*Ivox	*	*
*ICklav	*ICklav	*	*ICvox	*	*
*IGacomp	*IGacomp	*	*IGsolo	*	*
*clefF4	*clefG2	*	*clefG2	*	*
*k[f#c#g#]	*k[f#c#g#]	*	*k[f#c#g#]	*	*
*A:	*A:	*	*A:	*	*
*M3/4	*M3/4	*	*M3/4	*	*
=1	=1	=1	=1	=1	=1
*xywh-#2:90,2822,5693,1238	*xywh-#2:90,2822,5693,1238	*	*xywh-#2:258,1136,5572,1743	*	*
!	!	!	!LO:TX:a:t=Andante non troppo	!	!
8r	8r	.	2.r	.	.
(8C#\L	(8c#/L	p	.	.	.
8D\	8d/	.	.	.	.
8E#X\	8e#X/	.	.	.	.
8G#\	8g#/	.	.	.	.
8A\J	8a/J	.	.	.	.
=2	=2	=2	=2	=2	=2
8B\L	8b\L	.	2.r	.	.
8c#\J	8cc#\J	.	.	.	.
4d\)	4dd\)	.	.	.	.
8r	8r	.	.	.	.
(8D\	(8d/	<	.	.	.
=3	=3	=3	=3	=3	=3
8E#X\L	8e#X/L	[	2.r	.	.
8F#\	8f#/	.	.	.	.
8G#\	8g#/	.	.	.	.
8BB\	8B/	>	.	.	.
8.E#\	8.e#/	.	.	.	.
16D\Jk	16d/Jk	]]	.	.	.
=4	=4	=4	=4	=4	=4
2C#\)	2c#/)	.	2.r	.	.
4C# 4CC#/	4c# 4B 4G#/	.	.	.	.
!!LO:LB:g=original
=5	=5	=5	=5	=5	=5
*xywh-#2:319,4518,5410,1285	*xywh-#2:319,4518,5410,1285	*	*xywh-#2:358,3949,5383,760	*	*
[2.C# [2.FF#/	[2.c# [2.A [2.F#/	.	4r	.	.
.	.	.	4r	.	.
!	!	!	!LO:TX:a:i:t=dolce	!	!
.	.	.	8f#/	O	.
.	.	.	8g#/	nie	.
=6	=6	=6	=6	=6	=6
2C#] 2FF#/]	2c#] 2A] 2F#/]	.	4a/	zry-	.
.	.	.	4f#/	-waj	.
4r	4r	.	8g#/	co	.
.	.	.	8a/	nas	.
=7	=7	=7	=7	=7	=7
8r	8r	.	4.dd\	łą-	.
8FF#/L	8F#/L	<	.	.	.
8GG#/	8G#/	.	.	.	.
8AA/J	8A/J	[	8cc#\	-czy!	.
!	!	!	!	!	!LO:HP:a
[4D\	[4d/	.	8b#X\	A	<
.	.	.	8a/	za-	.
=8	=8	=8	=8	=8	=8
4.D\]	4.d/]	.	8g#/	-ra-	.
.	.	.	8f#/	-zem	.
.	.	.	4.a/	tak	[
(8E#X\L	(>8e#X/L	.	.	.	.
8F#\	8f#/	.	.	.	.
8G#\J	8g#/J	>	8d/	roz-	.
=9	=9	=9	=9	=9	=9
!	!	!	!	!	!LO:HP:a
4.A\)	4.a/)	]	4f#/	-dzie-	>
.	.	.	4c#/	-ra,	]
!	!	!	!	!	!LO:DY:a
(8C#\L	(8c#/L	p	.	.	p
8D\	8d/	.	8d/	Nies-	.
8E\J	8e/J	.	8e/	-koń-	.
!!LO:LB:g=original
=10	=10	=10	=10	=10	=10
*xywh-#2:299,6294,5451,1332	*xywh-#2:299,6294,5451,1332	*	*xywh-#2:406,5603,5397,807	*	*
!LO:TX:b:t=P:problem=koniec łuku na dole	!	!	!	!	!
4F#\)	4f#/)	.	4.f#/	-czo-	.
(4D 4DD'/	(4f# 4d 4A'/	.	.	.	.
.	.	.	8f#/	-ne	.
4BB 4BBB'/)	4f# 4d 4F#'/)	.	8f#/	się	.
.	.	.	8f#/	nie	.
=11	=11	=11	=11	=11	=11
2FF# 2FFF#/	2f# 2c# 2A/	.	4a/	koń-	.
.	.	.	4f#/	-czy,	.
!	!LO:TX:b:i:t=cresc.	!	!LO:TX:a:i:t=cresc.	!	!
(8F#\L	(8f#/L	.	8f#/	Nies-	.
8G#\J	8g#/J	.	8g#/	-koń-	.
=12	=12	=12	=12	=12	=12
*	*^	*	*	*	*
*	*	*xywh-#2:299,6294,5451,1332	*	*	*	*
4A\)	4a\)	4ryy	.	4.a\	-czo-	.
(2D 2AA 2DD/	(4f# 4F#/	2c#/	.	.	.	.
.	.	.	.	8g#/	-ne	.
.	4fn 4Fn/	.	.	8a/	się	.
.	.	.	.	8b/	nie	.
*	*v	*v	*	*	*	*
=13	=13	=13	=13	=13	=13
2AA 2AAA/)	2e 2c# 2C#/)	.	4cc#\	koń-	.
.	.	.	4a\	-czy,	.
!	!	!LO:DY:rj	!	!	!LO:DY:a:rj
[4FF# [4FFF#/	[4d [4A [4F#/	f	[4dd\	Nieś-	f
=14	=14	=14	=14	=14	=14
4FF#] 4FFF#/]	4d] 4A] 4F#/]	.	8dd\]	.	.
!	!	!	!	!	!LO:HP:a
.	.	.	8a\	-śmier-	>
4r	4r	.	8f#\	-tel-	.
.	.	.	8e\	-ne	.
4FF# 4FFF#/	4f# 4d 4A/	.	8d\	nie	.
.	.	.	8a/	u-	]
!!LO:PB:g=original
=15	=15	=15	=15	=15	=15
*xywh-#3:524,1178,5371,1275	*xywh-#3:524,1178,5371,1275	*	*xywh-#3:576,538,5263,742	*	*
!	!	!	!	!	!LO:HP:a
4r	4r	.	2.g#/	-mie-	<
2FF# 2FFF#/	4c# 4G#X 4E#X/	.	.	.	[
!LO:TX:a:t=P:problem=skreślone nuty	!	!	!	!	!LO:HP:a
.	4B#X 4G#/	.	.	.	>
=16	=16	=16	=16	=16	=16
8GG# 8CC#/	8c# 8G# 8E#X/	.	4g#/	-ra.	]
(8C#\L	(8c#/L	p	.	.	.
8D\	8d/	.	2r	.	.
8E#X\	8e#X/	.	.	.	.
8G#\	8g#/	.	.	.	.
8A\J	8a/J	.	.	.	.
=17	=17	=17	=17	=17	=17
8B\L	8b\L	.	2.r	.	.
8c#\J	8cc#\J	.	.	.	.
4d\)	4dd\)	.	.	.	.
8r	8r	.	.	.	.
(8D\	(8d/	<	.	.	.
=18	=18	=18	=18	=18	=18
8E#X\L	8e#X/L	.	2.r	.	.
8F#\	8f#/	[	.	.	.
8G#\	8g#/	.	.	.	.
8BB\	8B/	>	.	.	.
8.E#\	8.e#/	.	.	.	.
16D\Jk	16d/Jk	.	.	.	.
=19	=19	=19	=19	=19	=19
2C#\)	2c#/)	]	2.r	.	.
4C# 4CC#/	4c# 4B 4G#/	p	.	.	.
!!LO:LB:g=original
=20	=20	=20	=20	=20	=20
*xywh-#3:464,2899,5411,1214	*xywh-#3:464,2899,5411,1214	*	*xywh-#3:549,2218,5236,883	*	*
[2.C# [2.FF#/	[2.c# [2.A [2.F#/	.	4r	.	.
.	.	.	4r	.	.
!	!	!	!	!	!LO:DY:a
.	.	.	8f#/	Nie	p
.	.	.	8g#/	o-	.
=21	=21	=21	=21	=21	=21
2C#] 2FF#/]	2c#] 2A] 2F#/]	.	4a\	-pusz-	.
!	!	!	!LO:TX:a:i:t=dolce	!	!
.	.	.	4f#/	-czaj	.
4r	4r	.	8g#/	mię	.
.	.	.	8a/	w mil-	.
=22	=22	=22	=22	=22	=22
8r	8r	.	4.dd\	-cze-	.
(<8FF#/L	(8F#/L	<	.	.	.
8GG#/	8G#/	.	.	.	.
8AA/J	8A/J	[	8cc#\	-niu,	.
!	!	!	!	!	!LO:HP:a
[4D\)	[4d/)	.	8b#X\	Ty	<
.	.	.	8a\	zba-	.
=23	=23	=23	=23	=23	=23
4.D\]	4.d/]	.	8g#/	-wie-	.
.	.	.	8f#/	-niem	[
.	.	.	4.a\	mo-	.
(8E#X\L	(8e#X/L	.	.	.	.
8F#\	8f#/	.	.	.	.
8G#\J	8g#/J	.	8d/	-jem	.
=24	=24	=24	=24	=24	=24
!	!	!	!	!	!LO:HP:a
4A\)	4a\)	.	4f#/	ca-	>
8r	8r	.	4c#/	-łem,	]
(8C#\L	(8c#/L	p	.	.	.
!	!	!	!	!	!LO:DY:a
8D\	8d/	.	8d/	Czy	p
8E\J	8e/J	.	8e/	w ra-	.
!!LO:LB:g=original
=25	=25	=25	=25	=25	=25
*xywh-#3:437,4599,5398,1282	*xywh-#3:437,4599,5398,1282	*	*xywh-#3:536,4006,5256,823	*	*
4F#\)	4f#/)	.	4.f#/	-doś-	.
(4BB 4BBB'/	(4f# 4d 4F#'/	.	.	.	.
!	!	!	!LO:TX:a:i:t=cresc.	!	!
.	.	.	8f#/	-ci	.
4AA 4AAA'/)	4f# 4c# 4F#'/)	<	8f#/	czy	.
.	.	[	8f#/	w mil-	.
=26	=26	=26	=26	=26	=26
[2GG# [2GGG#/	[2f# [2B#X [2F#/	.	4a/	-cze-	.
.	.	.	4f#/	-niu,	.
8GG#] 8GGG#/]	8f#] 8B#X] 8F#/]	.	8f#/	Czy	.
8r	8r	.	8g#/	w ra-	.
=27	=27	=27	=27	=27	=27
4r	4r	.	4.a\	-doś-	.
4D 4DD'/	4f# 4A 4F#'/	.	.	.	.
.	.	.	8a\	-ci	.
4Cn 4CCn/	4f# 4e 4F#/	<	8a\	czy	.
.	.	[	8a\	w cier-	.
=28	=28	=28	=28	=28	=28
2BB 2BBB/	2a 2d#X 2A/	sfz	4ccn\	-pie-	.
!	!	!	!	!	!LO:DY:a
.	.	.	8a\	-niu,	p
.	.	.	8a/L	Ja	.
([4BB 4BBB/	[4a [4d# [4A/	p	8gn/J	.	.
.	.	.	8f#/	tak	.
=29	=29	=29	=29	=29	=29
*	*^	*	*	*	*
*	*	*xywh-#3:437,4599,5398,1282	*	*	*	*
4BB] 4EE/)	4a] 4d#] 4A/]	4ryy	.	4b\	zaw-	.
!LO:TX:t=P:problem=brak początku ligatur	!LO:TX:t=P:problem=brak początku ligatur	!	!LO:HP:t=poco cresc.	!	!	!
[2BB [2EE/	[2gn 2e [<2Gn/	4e\	<	4e/	-sze,	.
.	.	4dn\	.	8f#/	ja	.
.	.	.	.	8gn/	tak	.
*	*v	*v	*	*	*	*
!!LO:LB:g=original
=30	=30	=30	=30	=30	=30
*xywh-#3:160,6212,5701,1605	*xywh-#3:160,6212,5701,1605	*	*xywh-#3:576,5700,5256,802	*	*
!	!	!	!	!	!LO:HP:a
4BB] 4EE/]	4g] 4c# 4G]/	.	[2.cc#\	zaw-	<[
4EE 4EEE'/	(4gn 4c# 4Gn'/	.	.	.	.
4FF# 4FFF#'/	4f# 4c# 4A'/)	.	.	.	.
=31	=31	=31	=31	=31	=31
*	*^	*	*	*	*
*	*	*xywh-#3:160,6212,5701,1605	*	*	*	*
2GGn 2GGGn/	2e/	(4c# 4A#X\	.	4cc#\]	.	.
.	.	4B\)	.	4b\	-sze	.
4EE 4EEE'/	4d 4B 4Gn/	4ryy	p	8gn/	Cię	.
!	!	!	!	!LO:TX:a:i:t=dolce	!	!
.	.	.	.	8d/	ko-	.
*	*v	*v	*	*	*	*
=32	=32	=32	=32	=32	=32
4AA 4AAA/	4f# 4d 4Gn/	.	4f#/	-cha-	.
8AA 8AAA/	16eLL 16c# 16G/	.	4e/	-łem!	.
.	(16A/	pp	.	.	.
8r	16c#/	.	.	.	.
.	16e/JJ	.	.	.	.
4r	16gn\LL	.	4r	.	.
.	16a\	.	.	.	.
.	16cc#\	.	.	.	.
.	16ee\JJ	.	.	.	.
=33	=33	=33	=33	=33	=33
4r	16ff#\LL	.	2.r	.	.
.	16gg#\	.	.	.	.
.	16ee\	.	.	.	.
.	16cc#\JJ	.	.	.	.
4r	16a/LL	.	.	.	.
.	16g#/	.	.	.	.
.	16gn/	.	.	.	.
.	16e/JJ	.	.	.	.
[4AA (4AAA/	16c#/LL	.	.	.	.
.	16A/	.	.	.	.
.	16G#X/	.	.	.	.
.	16Gn/JJ)	.	.	.	.
!!LO:PB:g=original
=34	=34	=34	=34	=34	=34
*xywh-#4:405,1096,5471,1342	*xywh-#4:405,1096,5471,1342	*	*xywh-#4:509,457,5370,829	*	*
!	!LO:TX:b:i:t=legg.	!	!	!	!
2AA] 2DD/)	(16F#/LL	.	2.r	.	.
.	16A/	.	.	.	.
.	16d/	.	.	.	.
.	16f#/JJ	.	.	.	.
.	16a\LL	.	.	.	.
.	16ff#\	.	.	.	.
.	16dd\	.	.	.	.
.	16a\JJ	.	.	.	.
[4AA (4AAA/	16f#/LL	.	.	.	.
.	16d/	.	.	.	.
.	16A/	.	.	.	.
.	16Gn/JJ)	.	.	.	.
=35	=35	=35	=35	=35	=35
2AA] 2DD/)	(16F#/LL	.	2.r	.	.
.	16A/	.	.	.	.
.	16d/	.	.	.	.
.	16f#/JJ	.	.	.	.
.	16a\LL	.	.	.	.
.	16ff#\	.	.	.	.
.	16dd\	.	.	.	.
.	16a\JJ	.	.	.	.
[4AA (4AAA/	16f#/LL	.	.	.	.
.	16d/	.	.	.	.
.	16A/	.	.	.	.
.	16Gn/JJ)	.	.	.	.
=36	=36	=36	=36	=36	=36
!	!	!	!	!	!LO:DY:a:rj
2AA] 2DD/)	(16F#/LL	.	8f#/	Czy	p
.	16A/	.	.	.	.
.	16d/	.	8gn/	w na-	.
.	16f#/JJ	.	.	.	.
!	!	!	!LO:TX:a:i:t=con espress.	!	!
.	16d/LL	.	4a\	-dzie-	.
.	16A/	.	.	.	.
.	16F#/	.	.	.	.
.	16A/JJ	.	.	.	.
[4AA (4CC#/	16E/LL	.	4e/	-i	.
.	16A/	.	.	.	.
.	16e/	.	.	.	.
.	16A/JJ)	.	.	.	.
!!LO:LB:g=original
=37	=37	=37	=37	=37	=37
*xywh-#4:365,2809,5539,1437	*xywh-#4:365,2809,5539,1437	*	*xywh-#4:549,2251,5249,789	*	*
2AA] 2DD/)	(16F#/LL	.	8f#/	czy	.
.	16A/	.	.	.	.
.	16d/	.	8gn/	w zwąt-	.
.	16f#/JJ	.	.	.	.
.	16d/LL	.	4.a\	-pie-	.
.	16A/	.	.	.	.
.	16F#/	.	.	.	.
.	16A/JJ	.	.	.	.
[4AA (4CC#/	16E/LL	.	.	.	.
.	16A/	.	.	.	.
.	16e/	.	8g/	-niu,	.
.	16A/JJ)	.	.	.	.
=38	=38	=38	=38	=38	=38
2AA] 2DD/)	16F#/LL	.	8f#/	Czy	.
.	16A/	<	.	.	.
!	!	!	!	!	!LO:HP:a
.	16d/	.	8gn/	na-	<
!	!LO:TX:b:i:t=sempre legato	!	!	!	!
.	16f#/JJ	.	.	.	.
.	16a\LL	.	8a/	-mięt-	.
.	16ff#\	.	.	.	.
.	16dd\	.	8g/	-nym	.
.	16a\JJ	.	.	.	.
(4AA (4AAA/	16f#/LL	.	8.f#/	ser-	[
.	16d/	.	.	.	.
.	16A/	[	.	.	.
.	16F#/JJ	.	16dd\	-ca	.
=39	=39	=39	=39	=39	=39
!	!LO:TX:b:i:t=cresc.	!	!LO:TX:a:i:t=cresc.	!	!
2FF# 2FFF#/))	16A/LL	.	4dd\	sza-	.
.	16d/	.	.	.	.
.	16f#/	.	.	.	.
.	16a/JJ	.	.	.	.
.	16dd\LL	.	4a#X\	-łem,	.
.	16a#X\	.	.	.	.
.	16f#\	.	.	.	.
.	16d\JJ	.	.	.	.
(4DD (4DDD/	16A#X/LL	.	8a#\	Czy	.
.	16F#/	.	.	.	.
.	16A#/	.	8a#\	w a-	.
.	16d/JJ	.	.	.	.
!!LO:LB:g=original
=40	=40	=40	=40	=40	=40
*xywh-#4:418,4543,5532,1416	*xywh-#4:418,4543,5532,1416	*	*xywh-#4:489,3891,5330,809	*	*
2GGn 2GGGn/))	16B/LL	.	8b\	-niel-	.
.	16D/	.	.	.	.
.	16Gn/	.	8b\	-skiem	.
.	16B/JJ	.	.	.	.
.	16d/LL	.	4.dd\	roz-	.
.	16b/	.	.	.	.
.	16gn/	.	.	.	.
.	16d/JJ	.	.	.	.
[4GG [4GGG/	16B/LL	.	.	.	.
.	16G/	.	.	.	.
.	16D/	.	8gn/	-rzew-	.
.	16B/JJ	.	.	.	.
=41	=41	=41	=41	=41	=41
2GG] 2GGG/]	16B/LL	.	4f#/	-nie-	.
.	16E/	.	.	.	.
.	16B/	.	.	.	.
.	16d/JJ	.	.	.	.
.	16e/LL	.	4e/	-niu,	.
.	16b/	.	.	.	.
.	16e/	.	.	.	.
.	16d/JJ	.	.	.	.
(4GGny (4GGGny/	16B/LL	.	8f#/	Ja	.
.	16E/	.	.	.	.
!	!	!	!LO:TX:a:i:t=dolce	!	!
.	16B/	.	8gn/	tak	.
.	16d/JJ	.	.	.	.
=42	=42	=42	=42	=42	=42
2EE 2EEE/))	16d/LL	.	4.cc#\	zaw-	.
.	16Gn/	.	.	.	.
.	16B/	.	.	.	.
.	16d/JJ	.	.	.	.
.	16gn/LL	.	.	.	.
.	16b/	.	.	.	.
.	16g/	.	8b\	-sze	.
.	16d/JJ	.	.	.	.
(4GG# (4GGG#/	16B/LL	.	8gn/	Cię	.
.	16G/	.	.	.	.
.	16B/	.	8d/	ko-	.
.	16d/JJ	.	.	.	.
!!LO:LB:g=original
=43	=43	=43	=43	=43	=43
*xywh-#4:304,6277,5613,1302	*xywh-#4:304,6277,5613,1302	*	*xywh-#4:529,5665,5303,769	*	*
2AA 2AAA/))	16f#/LL	.	4f#/	-cha-	.
.	16Gn/	.	.	.	.
.	16A/	.	.	.	.
.	16d/JJ	.	.	.	.
.	16c#/LL	.	4e/	-łem!	.
.	16a/	.	.	.	.
.	16gn/	.	.	.	.
.	16e/JJ	.	.	.	.
[4AA 4AAA/	16c#/LL	.	4r	.	.
.	16A/	.	.	.	.
.	16G#X/	.	.	.	.
.	16Gn/JJ	.	.	.	.
=44	=44	=44	=44	=44	=44
2AA] 2DD/	16F#/LL	.	8f#/	Czy	.
.	16A/	.	.	.	p
.	16d/	.	8gn/	w na-	.
.	16f#/JJ	.	.	.	.
.	16d/LL	.	4a/	-dzie-	.
.	16A/	.	.	.	.
.	16F#/	.	.	.	.
.	16A/JJ	.	.	.	.
([4AA 4CC#/	16E/LL	.	4e/	-i,	.
.	16A/	.	.	.	.
.	16e/	.	.	.	.
.	16A/JJ	.	.	.	.
=45	=45	=45	=45	=45	=45
2AA] 2DD/)	16F#/LL	.	8f#/	czy	.
.	16A/	.	.	.	.
.	16d/	.	8gn/	w zwąt-	.
.	16f#/JJ	.	.	.	.
.	16d/LL	.	4.a/	-pie-	.
.	16A/	.	.	.	.
.	16F#/	.	.	.	.
.	16A/JJ	.	.	.	.
[4AA 4CC#/	16E/LL	.	.	.	.
.	16A/	.	.	.	.
.	16e/	.	8g/	-niu,	.
.	16A/JJ	.	.	.	.
!!LO:PB:g=original
=46	=46	=46	=46	=46	=46
*xywh-#5:534,1189,5591,1342	*xywh-#5:534,1189,5591,1342	*	*xywh-#5:641,320,5220,998	*	*
!	!	!	!	!	!LO:HP:a
2AA] 2DD/	16F#/LL	.	8f#/	Czy	<
.	16A/	.	.	.	.
.	16cn/	.	8gn/	na-	.
.	16f#/JJ	.	.	.	.
.	16a\LL	.	8a\	-mięt-	.
.	16ff#\	.	.	.	.
.	16ccn\	.	8ccn\	-nym	.
.	16a\JJ	.	.	.	.
[4AA [4DD/	16f#/LL	.	8.b-X\	ser-	.
.	16c/	.	.	.	.
.	16A/	.	.	.	.
.	16c/JJ	.	16a/	-ca	[[
=47	=47	=47	=47	=47	=47
2AA] 2DD/]	16F#/LL	.	[2.ee-X\	sza-	.
.	16A/	.	.	.	.
.	16cn/	.	.	.	.
.	16f#/JJ	.	.	.	.
.	16a\LL	.	.	.	.
.	16ff#\	.	.	.	.
.	16ccn\	.	.	.	.
.	16a\JJ	.	.	.	.
[4DD [4DDD/	16f#/LL	.	.	.	.
.	16c/	.	.	.	.
.	16A/	.	.	.	.
.	16c/JJ	.	.	.	.
=48	=48	=48	=48	=48	=48
4DD] 4DDD/]	16F#/LL	.	4ee-\]	.	.
.	16A/	.	.	.	.
.	16c#/	.	.	.	.
.	16f#/JJ	.	.	.	.
(4EEn 4EEEn/	16Gn/LL	>	4dd\	-łem,	.
.	16A/	.	.	.	.
.	16d/	.	.	.	.
.	16gn/JJ	.	.	.	.
!	!	!	!	!	!LO:DY:a
4FF# 4FFF#/	16A/LL	.	8cc#\	Czy	p
.	16c#/	.	.	.	.
.	16d/	]	8cc#\	w a-	.
.	16a/JJ	.	.	.	.
!!LO:LB:g=original
=49	=49	=49	=49	=49	=49
*xywh-#5:547,2862,5436,1308	*xywh-#5:547,2862,5436,1308	*	*xywh-#5:534,2161,5537,870	*	*
!	!	!	!LO:TX:a:i:t=dolce	!	!
!	!	!	!LO:ACC:color=grey	!	!
2GGn 2GGGn/)	16B-X/LL	p	4.b-X\	-niel-	.
.	16d/	.	.	.	.
.	16gn/	.	.	.	.
.	16b-X/JJ	.	.	.	.
.	16dd\LL	.	.	.	.
.	16bb-X\	.	.	.	.
.	16ggn\	.	8a\	-skiem	.
.	16dd\JJ	.	.	.	.
[4GG [4GGG/	16b-/LL	.	8gn/	roz-	.
.	16g/	.	.	.	.
.	16d/	.	8a/	-rzew-	.
.	16g/JJ	.	.	.	.
=50	=50	=50	=50	=50	=50
2GG] 2GGG/]	16B-X/LL	.	4b-X\	-nie-	.
.	16en/	.	.	.	.
.	16gn/	.	.	.	.
.	16b-X/JJ	.	.	.	.
.	16ee\LL	.	4b-\	-niu,	.
.	16bb-X\	.	.	.	.
.	16ggn\	.	.	.	.
.	16ee\JJ	.	.	.	.
!	!	!	!	!	!LO:DY:a
[4GGn [4GGGn/	16b-/LL	.	8cc#X\	Ja	<
.	16g/	.	.	.	.
.	16e/	<	8cc#\	tak	[[
.	16g/JJ	.	.	.	.
=51	=51	=51	=51	=51	=51
!	!	!	!LO:TX:a:i:t=espress. molto	!	!
2GG] 2GGG/]	16c#/LL	[	4.ee\	zaw-	.
.	16e/	.	.	.	.
.	16b-X/	.	.	.	.
.	16cc#/JJ	.	.	.	.
.	16bn\LL	.	.	.	.
.	16ee\	.	.	.	.
.	16dd\	.	8dd\	-sze,	.
.	16b\JJ	.	.	.	.
(4EE (4EEE/	16gn/LL	.	8bn\	ja	.
.	16d/	.	.	.	.
.	16B/	.	8gn/	tak	.
.	16d/JJ	.	.	.	.
!!LO:LB:g=original
=52	=52	=52	=52	=52	=52
*xywh-#5:561,4009,5382,1827	*xywh-#5:561,4009,5382,1827	*	*xywh-#5:614,3935,5322,802	*	*
2AA 2AAA/))	16F#/LL	.	8f#/	zaw-	.
.	16A/	.	.	.	.
.	16d/	.	8gn/	-sze	.
.	16f#/JJ	.	.	.	.
.	16a\LL	.	[2a\	Cię	.
.	16ff#\	.	.	.	.
.	16dd\	.	.	.	.
.	16a\JJ	.	.	.	.
[4AA [4AAA/	16f#/LL	.	.	.	.
.	16d/	.	.	.	.
.	16A/	.	.	.	.
.	16F#/JJ	.	.	.	.
=53	=53	=53	=53	=53	=53
2AA] 2AAA/]	16A/LL	.	2a\_	.	.
.	16d/	.	.	.	.
!	!	!	!	!	!LO:HP:a
.	16f#/	.	.	.	>
.	16a/JJ	.	.	.	.
.	16f#/LL	.	.	.	.
.	16d/	.	.	.	.
.	16A/	.	.	.	.
.	16d/JJ	.	.	.	]
[4AA [4DD/	16f#/LL	.	8a/]	.	.
!	!	!	!	!	!LO:DY:a
.	16Gn/	.	.	.	p
.	16A/	.	8f#/	ko-	.
.	16c#/JJ	.	.	.	.
=54	=54	=54	=54	=54	=54
2AA] 2DD/]	16e/LL	.	4e/	-cha-	.
.	16Gn/	.	.	.	.
.	16A/	.	.	.	.
.	16c#/JJ	.	.	.	.
.	16c#/LL	.	4d/	-łem!	.
.	16F#/	.	.	.	.
.	16A/	.	.	.	.
.	16d/JJ	.	.	.	.
[4AA [4DD/	16f#\LL	.	4r	.	.
.	16a\	.	.	.	.
.	16dd\	.	.	.	.
.	16ff#\JJ	.	.	.	.
!!LO:LB:g=original
=55	=55	=55	=55	=55	=55
*xywh-#5:48,6309,5949,1497	*xywh-#5:48,6309,5949,1497	*	*xywh-#5:675,5695,5268,782	*	*
2AA] 2DD/]	16dd/LL	.	2.r	.	.
.	16a/	.	.	.	.
.	16f#/	.	.	.	.
.	16d/JJ	.	.	.	.
.	16A/LL	.	.	.	.
.	16F#/	.	.	.	.
.	16D/	.	.	.	.
.	16F#/JJ	.	.	.	.
[4AA [4DD/	16A/LL	.	.	.	.
.	16d/	.	.	.	.
.	16f#/	.	.	.	.
.	16a/JJ	.	.	.	.
=56	=56	=56	=56	=56	=56
4AA] 4DD/]	4dd\	.	2.r	.	.
8r	8r	.	.	.	.
(>8D/L	(8d/L	pp	.	.	.
8C#/	8c#/	.	.	.	.
8BB#X/J	8B#X/J	.	.	.	.
=57	=57	=57	=57	=57	=57
8C#\)	8c#/)	.	2.r	.	.
8C#L 8CC#/	8r	.	.	.	.
8C# 8CC#/	4r	.	.	.	.
8C# 8CC#/	.	.	.	.	.
8C# 8CC#/	[4A [4F#/	.	.	.	.
8C#J 8CC#/	.	.	.	.	.
=58	=58	=58	=58	=58	=58
*	*^	*	*	*	*
*	*	*xywh-#5:48,6309,5949,1497	*	*	*	*
8C#L 8CC#/	2.A] 2.F#\]	4rc	.	4r	.	.
8C# 8CC#/	.	.	.	.	.	.
8C# 8CC#/	.	4rc	.	4r	.	.
8C# 8CC#/	.	.	.	.	.	.
8C# 8CC#/	.	4d^>/	.	8f#/	O	.
8C#J 8CC#/	.	.	.	8g#/	nie	.
!!LO:PB:g=original
=59	=59	=59	=59	=59	=59	=59
*xywh-#6:319,1132,5432,1191	*xywh-#6:319,1132,5432,1191	*xywh-#6:319,1132,5432,1191	*	*xywh-#6:463,499,5289,819	*	*
8C#L 8CC#/	4d/	4A 4F#\	.	4.a/	zry-	.
8C# 8CC#/	.	.	.	.	.	.
8C# 8CC#/	(4c#/	2ryy	.	.	.	.
8C# 8CC#/	.	.	.	8g#/	-waj	.
8C# 8CC#/	4A/	.	.	8f#/	co	.
8C#J 8CC#/	.	.	.	8a/	nas	.
*	*v	*v	*	*	*	*
=60	=60	=60	=60	=60	=60
8C#L 8CC#/	4.F#/)	.	4.dd\	łą-	.
8C# 8CC#/	.	.	.	.	.
8C# 8CC#/	.	.	.	.	.
!	!	!	!	!	!LO:HP:a
8C# 8CC#/	(8E#X/L	.	8cc#\	-czy!	<
8C# 8CC#/	8F#/	<	8b#X\	A	.
8C#J 8CC#/	8A/J	.	8a\	za-	[
=61	=61	=61	=61	=61	=61
8C#L 8CC#/	4B#X/	.	8g#/	-ra-	.
8C# 8CC#/	.	[	8g#/	-zem	.
8C# 8CC#/	4c#/)	.	4.a/	tak	.
8C# 8CC#/	.	.	.	.	.
8C# 8CC#/	((4F#/	.	.	.	.
8C#J 8CC#/	.	.	8f#/	roz-	.
=62	=62	=62	=62	=62	=62
!	!	!	!	!	!LO:HP:a
8CnL 8CCn/	2A 2F#/))	.	4e/	-dzie-	>
8C 8CC/	.	.	.	.	]
8C 8CC/	.	.	4d/	-ra,	.
!	!	!	!	!	!LO:DY:a
8C 8CC/	.	.	.	.	p
!	!LO:TX:t=P:problem=koniec środkowej ligatury na górze	!	!	!	!
8C 8CC/	[4f# [4d [4F#/	.	8d/	Nies-	.
8CJ 8CC/	.	.	8e/	-koń-	.
!!LO:LB:g=original
=63	=63	=63	=63	=63	=63
*xywh-#6:258,2901,5553,1252	*xywh-#6:258,2901,5553,1252	*	*xywh-#6:419,2233,5334,779	*	*
4Cn 4CCn/	4f#] 4d] 4F#/]	.	4.f#/	-czo-	.
!	!	!LO:DY:rj	!	!	!
(4BB 4BBB'/	(4f# 4d 4F#'/	p	.	.	.
.	.	.	8f#/	-ne	.
4AA 4AAA'/)	4f# 4c# 4F#'/)	.	8f#/	się	.
.	.	.	8f#/	nie	.
=64	=64	=64	=64	=64	=64
[2GG# [2GGG#/	[2f# [>2B#X [2F#/	.	4a\	koń-	.
.	.	.	4f#/	-czy,	.
!	!	!	!LO:TX:a:i:t=cresc.	!	!
8GG#] 8GGG#/]	8f#] 8B#] 8F#/]	.	8f#/	Nie-	.
8r	8r	.	8g#/	-skoń-	.
=65	=65	=65	=65	=65	=65
4r	4r	.	4.a/	-czo-	.
(4C# 4AA 4CC#'/	(4f# 4A 4F#'/	<	.	.	.
.	.	.	8a/	-ne	.
4D 4AA 4DD'/)	4f# 4A 4F#'/)	[	8a/	się	.
.	.	.	8a/	nie	.
=66	=66	=66	=66	=66	=66
!	!	!	!	!	!LO:DY:a:rj
2D#X 2AA 2DD#X/	2fn 2cn 2A 2Fn/	sfz	4ccn\	koń-	f
.	.	.	4a\	-czy,	.
(4Cn 4AA (4DD#/	(>4f 4c 4A 4F/	>	8.a/	Nie-	.
.	.	.	16a/	-śmier-	.
=67	=67	=67	=67	=67	=67
!	!	!	!LO:TX:t=P:problem=brak początku ligatury	!	!
2C#X) 2AA 2EE/)	2e 2c#X 2A 2E/)	]	[2.cc#X\	-tel-	.
(4C# 4AA (4EE#X/	(4c# 4A (4E#X/	.	.	.	.
!!LO:LB:g=original
=68	=68	=68	=68	=68	=68
*xywh-#6:386,4455,5587,1480	*xywh-#6:386,4455,5587,1480	*	*xywh-#6:413,3965,5357,729	*	*
2D 2AA 2FF#X/))	2d 2A 2F#/))	.	4cc#\]	.	.
.	.	.	4f#/	-ne	.
4D 4AA 4FF#/	4d 4A 4F#/	p	4r	.	.
=69	=69	=69	=69	=69	=69
2BB 2BBB/	(2d 2G# 2E/	.	4r	.	.
.	.	>	4.f#/	nie	.
(4BB (4BBB/	4d 4G# 4F#/)	]	.	.	.
.	.	.	8b/	u-	.
=70	=70	=70	=70	=70	=70
!	!	!	!	!	!LO:DY:a
[2.FF# [2.FFF#/))	(>16c#LL 16A#X 16F#/	pp	[2.a#X\	-mie-	p
.	16C#/	.	.	.	.
.	16F#/	.	.	.	.
.	16A#/JJ	.	.	.	.
.	16c#\LL	.	.	.	.
.	16f#\	.	.	.	.
.	16a#X\	.	.	.	.
.	16ff#\JJ	.	.	.	.
.	16cc#/LL	.	.	.	.
.	16a#/	.	.	.	.
.	16f#/	.	.	.	.
.	16c#/JJ	.	.	.	.
=71	=71	=71	=71	=71	=71
2FF#] 2FFF#/]	16A#X/LL	.	4a#\]	.	.
.	16C#/	.	.	.	.
.	16F#/	.	.	.	.
.	16A#/JJ	.	.	.	.
!	!LO:TX:b:i:t=dim.	!	!	!	!
.	16c#\LL	.	4f#/	-ra!	.
.	16f#\	.	.	.	.
.	16a#X\	.	.	.	.
.	16ff#\JJ	.	.	.	.
[4FF# [4FFF#/	16cc#/LL	.	4r	.	.
.	16a#/	.	.	.	.
.	16f#/	.	.	.	.
.	16c#/JJ	.	.	.	.
!!LO:LB:g=original
=72	=72	=72	=72	=72	=72
*xywh-#6:251,6246,2645,1474	*xywh-#6:251,6246,2645,1474	*	*xywh-#6:391,5637,2417,589	*	*
2FF#] 2FFF#/]	16A#X/LL	.	2.r	.	.
.	16F#/	.	.	.	.
.	16A#/	.	.	.	.
.	16c#/JJ	.	.	.	.
.	8f#/)	.	.	.	.
.	8r	.	.	.	.
(4D#X [>4AA#X (4DD#X/	[4f# 4d#X 4A#X 4F#X/	.	.	.	.
=73	=73	=73	=73	=73	=73
!	!LO:SIC:v:n=3:s=2.a#	!	!	!	!
2.FF#) 2.AA#] 2.C#;/)	2.f#] 2.c# 2.A 2.F#;/	ppp	2.r;	.	.
==	==	==	==	==	==
*-	*-	*-	*-	*-	*-
!!!system-decoration: s1{(s2,s3)}
!!!RDF**kern: > = above
!!!RDF**kern: < = below
!!!ENC: Arkadiusz Malec
!!!END: 2022-02-16
!!!ENC: Marta Lawrence
!!!END: 2022-02-16
!!!ENC-iiif: Antoni Szymański
!!!END-iiif: 2022-09-04
!!!YEC: Copyright 2022 Narodowy Instytut Fryderyka Chopina (https://polishscores.org)
!!!YEM: License CC-BY-4.0 (https://creativecommons.org/licenses/by/4.0)
!!!IIIF: https://polona.pl/iiif/item/NjYwMTQ0NzE/manifest.json
